Images/photos_and_videos.svg

<svg width="41" height="40" viewBox="0 0 41 40" fill="none" xmlns="http://www.w3.org/2000/svg">
<path d="M25.8381 38.6097L16.5125 33.6138C15.361 32.997 15.4936 31.3051 16.7272 30.8752L27.0349 27.2825C27.5525 27.1021 28.1213 27.142 28.6086 27.3929L37.8167 32.1334C38.5312 32.5012 38.5419 33.519 37.8352 33.9018L29.1578 38.602C28.1229 39.1626 26.8755 39.1655 25.8381 38.6097Z" fill="#E2E2E2" fill-opacity="0.933333"/>
<path d="M11.3311 2.61804L14.1112 1.01248C14.2673 0.922002 14.4678 0.93265 14.6914 1.06038L32.7311 11.4743C32.9458 11.5985 33.1427 11.8131 33.2953 12.0739C33.4905 12.4004 33.6129 12.796 33.6129 13.1614V15.2229L30.8221 16.8356V14.7741C30.8221 14.4086 30.6979 14.013 30.5028 13.6866C30.3502 13.4258 30.1533 13.2111 29.9386 13.0852L11.8988 2.67303C11.6823 2.54884 11.4854 2.53643 11.3311 2.61804Z" fill="#3543BF"/>
<path d="M12.7695 5.36393C12.5229 5.222 12.3242 4.87606 12.3242 4.59221C12.3242 4.30835 12.5229 4.19125 12.7695 4.33495C13.0161 4.47865 13.2166 4.82282 13.2166 5.10668C13.2166 5.39053 13.0161 5.50763 12.7695 5.36393Z" fill="#EFF1FF"/>
<path d="M25.6873 18.7726C25.6873 19.6685 25.0574 20.0304 24.2821 19.5851C23.5068 19.1363 22.877 18.0487 22.877 17.1511C22.877 16.2534 23.5068 15.8932 24.2821 16.3403C25.0574 16.7892 25.6873 17.8767 25.6873 18.7726Z" fill="#F2A526"/>
<path d="M13.9001 5.50338C13.9001 5.78901 14.0988 6.13495 14.3454 6.27688C14.592 6.41881 14.7925 6.30348 14.7925 6.01962C14.7925 5.73577 14.592 5.38805 14.3454 5.2479C14.0988 5.10597 13.9001 5.2213 13.9001 5.50338ZM12.3228 4.59505C12.3228 4.8789 12.5215 5.22484 12.7682 5.36677C13.0148 5.5087 13.2152 5.39337 13.2152 5.10952C13.2152 4.82566 13.0148 4.47972 12.7682 4.33779C12.5215 4.19586 12.3228 4.31119 12.3228 4.59505ZM11.0117 5.35434V3.34075C11.0117 2.98771 11.1306 2.73578 11.3169 2.62579L11.3293 2.61871C11.4837 2.5371 11.6806 2.54773 11.8971 2.67369L29.9368 13.0858C30.1515 13.2118 30.3484 13.4265 30.501 13.6873C30.6962 14.0137 30.8204 14.4093 30.8204 14.7748V16.7884L11.0117 5.35256V5.35434ZM15.9226 7.18699C16.1692 7.32892 16.368 7.21359 16.368 6.93151C16.368 6.64943 16.1692 6.29994 15.9226 6.15801C15.676 6.01608 15.4755 6.13139 15.4755 6.41524C15.4755 6.6991 15.676 7.04684 15.9226 7.18699Z" fill="#3543BF"/>
<path d="M33.3656 33.3748L30.5713 34.9874C30.7327 34.8952 30.8214 34.6788 30.8214 34.3452V16.8314L33.6122 15.2188V32.7343C33.6122 33.0661 33.5235 33.2825 33.3656 33.3748Z" fill="#C2C7EC"/>
<path d="M14.3457 6.27478C14.0991 6.13285 13.9004 5.7869 13.9004 5.50128C13.9004 5.21565 14.0991 5.10209 14.3457 5.24579C14.5923 5.38595 14.7928 5.73189 14.7928 6.01752C14.7928 6.30315 14.5923 6.41848 14.3457 6.27478Z" fill="#EFF1FF"/>
<path d="M11.0125 16.9725L17.3197 13.332L23.6925 24.3722L25.9901 23.0452L30.8194 31.41V34.3515C30.8194 34.685 30.7307 34.9014 30.5692 34.9937C30.4113 35.0842 30.1807 35.0522 29.8933 34.8872L11.8961 24.4982C11.6743 24.3704 11.4685 24.1416 11.3141 23.8701C11.1261 23.5455 11.0107 23.1623 11.0107 22.8092V16.9725H11.0125Z" fill="#3543BF"/>
<path d="M22.8774 17.1546C22.8774 18.0505 23.5072 19.1398 24.2825 19.5886C25.0579 20.0357 25.6877 19.672 25.6877 18.7761C25.6877 17.8802 25.0579 16.7927 24.2825 16.3438C23.5072 15.895 22.8774 16.2587 22.8774 17.1546ZM11.0117 5.35334L30.8204 16.7891V31.4094L25.9911 23.0446L23.6935 24.3716L17.3207 13.3314L11.0135 16.9719V5.35156L11.0117 5.35334Z" fill="#EFF1FF"/>
<path d="M15.9237 7.18847C15.677 7.04832 15.4766 6.70236 15.4766 6.41673C15.4766 6.1311 15.677 6.01579 15.9237 6.15949C16.1703 6.30142 16.369 6.64737 16.369 6.93299C16.369 7.21862 16.1703 7.33218 15.9237 7.18847Z" fill="#EFF1FF"/>
<path d="M30.3702 35.3127C30.2106 35.3127 30.0083 35.2631 29.7617 35.1212L11.7645 24.7321C11.509 24.5848 11.2677 24.3276 11.085 24.0047C10.8667 23.6268 10.7461 23.2028 10.7461 22.8125V3.34365C10.7461 2.90545 10.9058 2.56129 11.1843 2.39985C11.1896 2.3963 11.1932 2.39452 11.1985 2.39274L11.2109 2.38564C11.4487 2.25968 11.7414 2.28096 12.0306 2.44773L30.0704 12.8599C30.3241 13.0089 30.5512 13.2502 30.7304 13.5589C30.9557 13.935 31.0852 14.382 31.0852 14.7794V34.3548C31.0852 34.8941 30.8776 35.1265 30.702 35.2276C30.6204 35.2737 30.5104 35.3127 30.3685 35.3127H30.3702ZM11.4469 2.86288C11.3422 2.92852 11.2783 3.11125 11.2783 3.34365V22.8125C11.2783 23.107 11.3759 23.4441 11.5462 23.7404C11.6811 23.9781 11.8567 24.1715 12.0306 24.2708L30.0278 34.6599C30.246 34.7859 30.3827 34.7965 30.4377 34.7646C30.4944 34.7326 30.5547 34.6067 30.5547 34.353V14.7777C30.5547 14.4725 30.4518 14.1248 30.2744 13.8267C30.1414 13.5979 29.9746 13.4187 29.8043 13.3176L11.7662 2.90546C11.6935 2.86465 11.5587 2.80256 11.4575 2.85578C11.4575 2.85578 11.4522 2.85756 11.4487 2.86111L11.4469 2.86288Z" fill="#0F0F0F"/>
<path d="M30.8208 17.0578C30.7764 17.0578 30.7303 17.0471 30.6877 17.0223L10.8791 5.58653C10.7514 5.51379 10.7088 5.35056 10.7815 5.22283C10.8543 5.0951 11.0175 5.05253 11.1452 5.12527L30.9539 16.561C31.0816 16.6338 31.1242 16.797 31.0514 16.9247C31.0018 17.0099 30.9131 17.0578 30.8208 17.0578Z" fill="#0F0F0F"/>
<path d="M30.5712 35.2603C30.479 35.2603 30.3902 35.2124 30.3406 35.1272C30.2678 34.9995 30.3104 34.8362 30.4382 34.7635L33.2325 33.1509C33.2857 33.1189 33.346 32.9947 33.346 32.741V13.164C33.346 12.8571 33.2449 12.5093 33.0675 12.2131C32.9344 11.9842 32.7676 11.805 32.5991 11.7057L14.5593 1.29175C14.4848 1.24917 14.3464 1.18532 14.2453 1.24387L11.4527 2.85651C11.325 2.93102 11.1635 2.88666 11.089 2.75893C11.0163 2.63119 11.0589 2.46976 11.1866 2.39525L13.9791 0.782589C14.224 0.640662 14.5238 0.658406 14.8254 0.830493L32.867 11.2444C33.1189 11.3917 33.3478 11.6312 33.527 11.9416C33.7505 12.316 33.88 12.763 33.88 13.1622V32.7393C33.88 33.275 33.6742 33.5075 33.5021 33.6086L30.706 35.2212C30.6635 35.2461 30.6191 35.2567 30.573 35.2567L30.5712 35.2603Z" fill="#0F0F0F"/>
<path d="M30.8217 17.1026C30.7295 17.1026 30.6408 17.0547 30.5911 16.9696C30.5183 16.8418 30.5609 16.6804 30.6887 16.6059L33.4794 14.9932C33.6072 14.9187 33.7704 14.9631 33.8431 15.0908C33.9159 15.2185 33.8733 15.38 33.7456 15.4545L30.9548 17.0671C30.9122 17.092 30.8678 17.1026 30.8217 17.1026Z" fill="#0F0F0F"/>
<path d="M30.821 31.6766C30.7287 31.6766 30.64 31.6287 30.5903 31.5435L25.8941 23.4093L23.8272 24.6033C23.7669 24.6388 23.6941 24.6477 23.6249 24.6299C23.5575 24.6122 23.499 24.5678 23.4635 24.5057L17.2237 13.6962L11.1472 17.2036C11.0194 17.2781 10.858 17.2337 10.7835 17.106C10.7107 16.9783 10.7533 16.8168 10.881 16.7423L17.1882 13.1019C17.2486 13.0664 17.3213 13.0575 17.3905 13.0753C17.4579 13.093 17.5165 13.1374 17.5519 13.1995L23.7917 24.009L25.8586 22.815C25.9189 22.7796 25.9917 22.7707 26.0609 22.7884C26.1283 22.8062 26.1868 22.8505 26.2223 22.9126L31.0516 31.2774C31.1244 31.4052 31.0818 31.5666 30.954 31.6411C30.9115 31.666 30.8671 31.6766 30.821 31.6766Z" fill="#0F0F0F"/>
<path d="M24.9069 20.0471C24.6692 20.0471 24.4102 19.9708 24.1476 19.82C23.2853 19.3215 22.6094 18.1505 22.6094 17.1553C22.6094 16.6231 22.8028 16.2186 23.1541 16.0163C23.5053 15.8141 23.9524 15.8496 24.4137 16.1157C25.276 16.6142 25.9502 17.7833 25.9502 18.7786C25.9502 19.3108 25.7568 19.7153 25.4055 19.9176C25.2547 20.0045 25.0861 20.0488 24.9069 20.0488V20.0471ZM23.6526 16.419C23.5657 16.419 23.4876 16.4386 23.4202 16.4758C23.2428 16.5787 23.1416 16.8253 23.1416 17.1553C23.1416 17.9519 23.7236 18.9595 24.4137 19.3587C24.6976 19.5219 24.9637 19.5574 25.1393 19.4563C25.3168 19.3534 25.4179 19.1068 25.4179 18.7768C25.4179 17.982 24.836 16.9743 24.1458 16.5752C23.9684 16.4723 23.7981 16.419 23.6508 16.419H23.6526Z" fill="#0F0F0F"/>
<path d="M21.4618 24.0063C23.1509 28.3607 22.599 32.2052 20.3414 33.5513L20.2979 33.5764C20.0002 33.7487 19.6691 33.8757 19.3146 33.9577C19.1407 33.9978 18.9601 34.0279 18.7728 34.0446C18.4099 34.0764 18.0336 34.0647 17.654 34.0062C15.9834 33.7603 14.1856 32.6952 12.5802 31.0915L12.5785 31.0898C11.0133 29.5296 9.63026 27.4594 8.7339 25.1417C7.03149 20.7605 7.60342 16.8943 9.89782 15.5732C10.3427 15.314 10.8527 15.1535 11.4247 15.1033C14.9398 14.789 19.4333 18.7739 21.4652 24.0046L21.4618 24.0063Z" fill="#EFF1FF"/>
<path d="M20.3424 33.7967C20.2571 33.7967 20.1735 33.7532 20.1267 33.6746C20.0564 33.5559 20.0949 33.402 20.2136 33.3301C22.4127 32.0191 22.8308 28.2181 21.2287 24.0911C19.2387 18.9657 14.8505 15.0427 11.4457 15.3487C10.924 15.3955 10.444 15.5427 10.0226 15.7868C7.78505 17.0811 7.35195 20.8888 8.96572 25.0476C9.81358 27.2382 11.1598 29.3201 12.7535 30.9087C12.8521 31.0057 12.8521 31.1646 12.7535 31.2633C12.6565 31.3619 12.4976 31.3619 12.3989 31.2633C10.7567 29.6261 9.37041 27.4824 8.49747 25.2299C6.79004 20.8353 7.31345 16.7734 9.77007 15.3537C10.255 15.0727 10.8036 14.9039 11.4006 14.8503C15.0127 14.5243 19.6317 18.5928 21.697 23.9121C23.3893 28.2733 22.8843 32.3251 20.4711 33.7632C20.431 33.7867 20.3859 33.7984 20.3424 33.7984V33.7967Z" fill="#0F0F0F"/>
<path d="M18.3796 34.3079C18.1288 34.3079 17.8746 34.2878 17.6154 34.2494C15.9264 33.9969 14.0751 32.9367 12.4011 31.2644C12.3025 31.1658 12.3025 31.0069 12.4011 30.9099C12.4998 30.8113 12.6587 30.8113 12.7557 30.9099C14.3544 32.5069 16.107 33.5169 17.689 33.7544C18.0519 33.8096 18.4098 33.8213 18.7493 33.7912C18.9165 33.7761 19.0837 33.7494 19.2576 33.7092C19.5887 33.6323 19.8964 33.5136 20.1723 33.3547C20.2928 33.2862 20.4466 33.3263 20.5152 33.4467C20.5837 33.5671 20.5436 33.7193 20.4232 33.7895C20.1055 33.9734 19.751 34.1106 19.3713 34.1975C19.1757 34.2427 18.9817 34.2744 18.7944 34.2895C18.6589 34.3012 18.5201 34.3079 18.3796 34.3079Z" fill="#0F0F0F"/>
<path d="M12.8564 28.6284V19.8317C12.8564 19.6272 13.114 19.5368 13.2418 19.6965L18.5201 26.2941C18.61 26.4065 18.5672 26.5737 18.4343 26.629L13.1561 28.8282C13.0135 28.8876 12.8564 28.7828 12.8564 28.6284Z" fill="url(#paint0_linear_1227_34757)" stroke="#0F0F0F" stroke-width="0.540993"/>
<defs>
<linearGradient id="paint0_linear_1227_34757" x1="12.8564" y1="28.953" x2="21.4491" y2="23.7972" gradientUnits="userSpaceOnUse">
<stop stop-color="#43E1A8"/>
<stop offset="1" stop-color="#219393"/>
</linearGradient>
</defs>
</svg>

<svg width="41" height="40" viewBox="0 0 41 40" fill="none" xmlns="http://www.w3.org/2000/svg">
    <path d="m25.838 38.61-9.326-4.996c-1.151-.617-1.018-2.309.215-2.739l10.308-3.593a2 2 0 0 1 1.574.11l9.208 4.741a1 1 0 0 1 .018 1.769l-8.677 4.7a3.5 3.5 0 0 1-3.32.008z" fill="#E2E2E2" fill-opacity=".933"/>
    <path d="m11.331 2.618 2.78-1.606c.156-.09.357-.08.58.048l18.04 10.414c.215.124.412.34.564.6.195.326.318.722.318 1.087v2.062l-2.79 1.613v-2.062c0-.365-.125-.761-.32-1.087-.153-.261-.35-.476-.564-.602L11.899 2.673c-.217-.124-.414-.137-.568-.055z" fill="#3543BF"/>
    <path d="M12.77 5.364a.983.983 0 0 1-.446-.772c0-.284.199-.4.446-.257.246.144.447.488.447.772 0 .284-.2.4-.447.257z" fill="#EFF1FF"/>
    <path d="M25.687 18.773c0 .896-.63 1.257-1.405.812-.775-.449-1.405-1.536-1.405-2.434 0-.898.63-1.258 1.405-.81.775.448 1.405 1.536 1.405 2.432z" fill="#F2A526"/>
    <path d="M13.9 5.503c0 .286.199.632.445.774.247.142.447.026.447-.257 0-.284-.2-.632-.447-.772-.246-.142-.445-.027-.445.255zm-1.577-.908c0 .284.198.63.445.772.247.142.447.026.447-.257 0-.284-.2-.63-.447-.772-.247-.142-.445-.027-.445.257zm-1.311.76V3.34c0-.353.119-.605.305-.715l.012-.007c.155-.082.352-.071.568.055l18.04 10.412c.214.126.411.34.564.601.195.327.32.722.32 1.088v2.013L11.01 5.353v.001zm4.91 1.832c.247.142.446.027.446-.255 0-.283-.199-.632-.445-.774-.247-.142-.447-.027-.447.257 0 .284.2.632.447.772z" fill="#3543BF"/>
    <path d="m33.366 33.375-2.795 1.612c.162-.092.25-.308.25-.642V16.831l2.791-1.612v17.515c0 .332-.089.548-.246.64z" fill="#C2C7EC"/>
    <path d="M14.346 6.275A.984.984 0 0 1 13.9 5.5c0-.285.2-.399.446-.255a.98.98 0 0 1 .447.772c0 .285-.2.4-.447.257z" fill="#EFF1FF"/>
    <path d="m11.012 16.973 6.308-3.641 6.372 11.04 2.298-1.327 4.83 8.365v2.942c0 .333-.09.55-.25.642-.159.09-.39.058-.677-.107L11.896 24.498c-.222-.128-.428-.356-.582-.628a2.187 2.187 0 0 1-.303-1.06v-5.837h.002z" fill="#3543BF"/>
    <path d="M22.877 17.155c0 .895.63 1.985 1.405 2.434.776.447 1.406.083 1.406-.813 0-.896-.63-1.983-1.405-2.432-.776-.449-1.406-.085-1.406.81zM11.012 5.353 30.82 16.79v14.62l-4.829-8.364-2.297 1.327-6.373-11.04-6.308 3.64V5.352l-.001.001zM15.924 7.188a.98.98 0 0 1-.447-.771c0-.286.2-.401.447-.258a.984.984 0 0 1 .445.774c0 .286-.199.4-.445.255z" fill="#EFF1FF"/>
    <path d="M30.37 35.313c-.16 0-.362-.05-.608-.192L11.765 24.732c-.256-.147-.497-.404-.68-.727a2.438 2.438 0 0 1-.339-1.192V3.343c0-.438.16-.782.438-.943a.053.053 0 0 1 .014-.007l.013-.007c.238-.126.53-.105.82.062L30.07 12.86c.253.149.48.39.66.699.225.376.354.823.354 1.22v19.576c0 .54-.207.772-.383.873a.667.667 0 0 1-.334.085h.002zM11.447 2.863c-.105.066-.169.248-.169.48v19.47c0 .294.098.631.268.927.135.238.31.432.485.53l17.997 10.39c.218.126.355.137.41.105.056-.032.117-.158.117-.412V14.778c0-.306-.103-.653-.28-.951a1.417 1.417 0 0 0-.47-.51L11.765 2.906c-.072-.04-.207-.102-.309-.05l-.008.006-.002.002z" fill="#0F0F0F"/>
    <path d="M30.82 17.058a.263.263 0 0 1-.132-.036L10.879 5.587a.266.266 0 0 1 .266-.462l19.809 11.436a.266.266 0 0 1-.133.497z" fill="#0F0F0F"/>
    <path d="M30.571 35.26a.266.266 0 0 1-.133-.496l2.795-1.613c.053-.032.113-.156.113-.41V13.164a1.92 1.92 0 0 0-.278-.95 1.409 1.409 0 0 0-.469-.508L14.56 1.292c-.074-.043-.213-.107-.314-.048l-2.792 1.613a.267.267 0 0 1-.266-.461L13.979.782c.245-.142.545-.125.846.047l18.042 10.414c.252.148.48.387.66.698.224.374.353.821.353 1.22V32.74c0 .536-.206.769-.378.87l-2.796 1.612a.257.257 0 0 1-.133.036l-.002.003z" fill="#0F0F0F"/>
    <path d="M30.822 17.103a.267.267 0 0 1-.133-.497l2.79-1.613a.267.267 0 0 1 .266.461l-2.79 1.613a.258.258 0 0 1-.133.036zM30.821 31.677a.266.266 0 0 1-.23-.133l-4.697-8.135-2.067 1.194a.267.267 0 0 1-.364-.097l-6.24-10.81-6.076 3.508a.267.267 0 0 1-.266-.461l6.307-3.641a.267.267 0 0 1 .364.098l6.24 10.809 2.067-1.194a.268.268 0 0 1 .363.098l4.83 8.364a.267.267 0 0 1-.231.4zM24.907 20.047c-.238 0-.497-.076-.76-.227-.862-.498-1.538-1.67-1.538-2.665 0-.532.194-.936.545-1.139.351-.202.798-.166 1.26.1.862.498 1.536 1.667 1.536 2.663 0 .532-.193.936-.544 1.139a.988.988 0 0 1-.5.13zm-1.254-3.628a.475.475 0 0 0-.233.057c-.177.103-.278.35-.278.68 0 .796.582 1.803 1.272 2.203.284.163.55.198.725.097.178-.103.279-.35.279-.68 0-.794-.582-1.802-1.272-2.2a1.018 1.018 0 0 0-.495-.157h.002z" fill="#0F0F0F"/>
    <path d="M21.462 24.006c1.689 4.355 1.137 8.2-1.12 9.545l-.044.025a3.56 3.56 0 0 1-.983.382c-.174.04-.355.07-.542.087-.363.031-.74.02-1.119-.039-1.67-.246-3.468-1.31-5.074-2.915l-.002-.001c-1.565-1.56-2.948-3.63-3.844-5.948-1.703-4.381-1.13-8.248 1.164-9.569.445-.259.955-.42 1.527-.47 3.515-.314 8.008 3.67 10.04 8.902l-.003.001z" fill="#EFF1FF"/>
    <path d="M20.342 33.797a.25.25 0 0 1-.128-.467c2.199-1.31 2.617-5.112 1.015-9.239-1.99-5.125-6.378-9.048-9.783-8.742a3.429 3.429 0 0 0-1.423.438c-2.238 1.294-2.671 5.102-1.057 9.26.848 2.191 2.194 4.273 3.788 5.862a.25.25 0 0 1 0 .354.25.25 0 0 1-.355 0c-1.642-1.637-3.029-3.78-3.902-6.033-1.707-4.395-1.184-8.457 1.273-9.876a3.923 3.923 0 0 1 1.63-.504c3.613-.326 8.232 3.743 10.297 9.062 1.692 4.361 1.187 8.413-1.226 9.851a.256.256 0 0 1-.129.035v-.001z" fill="#0F0F0F"/>
    <path d="M18.38 34.308c-.251 0-.505-.02-.765-.059-1.689-.252-3.54-1.312-5.214-2.985a.25.25 0 0 1 0-.354.25.25 0 0 1 .355 0c1.598 1.597 3.351 2.607 4.933 2.844.363.056.72.067 1.06.037a3.73 3.73 0 0 0 .509-.082c.33-.077.638-.195.914-.354a.251.251 0 0 1 .251.434 3.78 3.78 0 0 1-1.052.408c-.195.046-.39.077-.577.092a4.827 4.827 0 0 1-.414.019z" fill="#0F0F0F"/>
    <path d="M12.856 28.628v-8.796c0-.205.258-.295.386-.136l5.278 6.598c.09.113.047.28-.086.335l-5.278 2.2a.216.216 0 0 1-.3-.2z" fill="url(#cgrkbjp5na)" stroke="#0F0F0F" stroke-width=".541"/>
    <defs>
        <linearGradient id="cgrkbjp5na" x1="12.856" y1="28.953" x2="21.449" y2="23.797" gradientUnits="userSpaceOnUse">
            <stop stop-color="#43E1A8"/>
            <stop offset="1" stop-color="#219393"/>
        </linearGradient>
    </defs>
</svg>
